X:410
T: DIR FOLGEN MEINE TRAENEN
N: B0483
O: Europa, Mitteleuropa, Deutschland, Rheinland
R: Liebes - Lied, Leid, Klage
M: 6/8
L: 1/8
K: F
C | F2FA2c | c2BG2
C | F2FG2A | F3z2
c | d2Bfed | c2AF2
A | G2Gc2E | F3z2
A | G2G_A2A | _A2GG2
G | _A2AAGF | c3-c2
C | F2FA2c | c2BG2
C | F2FG2A | F3z2
c | d2Bfed | c2AF2
A | G2Gc2E | F3z2

